X: 596
T: Jim Keefe's Polka
B: good tune book
B: tunes
M:2/4
R: polka
Q: 1/4=100
K:Amajor
V:1 
|:ea c/e/c/B/|Ac E>A|e/c/B Bc/e/|fe cf|
 ea c/e/c/B/|Ac E>A|e/c/B e/c/B|1 A2 A>f:|2 A2 A>B||
 |:cB Bc/e/|f/a/f/e/ cB|cB Bc/e/|f/a/f/e/ cf|
 ea c/e/c/B/|Ac E>A|e/c/B e/c/B|1 A2 A>B:|2 A2 a>f||
% abcbook-tune_id 63dce58b14d225679b72bfc7
% abcbook-tune_composer_id 
% abcbook-link-0 https://www.youtube.com/watch?v=A-hdsrI_1Gc
% abcbook-link-title-0 #polka-004 Jim Keefe&#39;s
% abcbook-boost 0
% abcbook-difficulty 0
% abcbook-tags good tune book
% abcbook-tablature 
% abcbook-transpose 
% abcbook-tuning 
% abcbook-lastupdated 1675431925379
% abcbook-soundfonts 
% abcbook-repeats 1


